Papirus/16x16/devices/media-flash.svg

<?xml version="1.0" encoding="UTF-8" standalone="no"?>
<!--Created with Inkscape (http://www.inkscape.org/)-->
<svg xmlns:osb="http://www.openswatchbook.org/uri/2009/osb" xmlns:dc="http://purl.org/dc/elements/1.1/" xmlns:cc="http://creativecommons.org/ns#" xmlns:rdf="http://www.w3.org/1999/02/22-rdf-syntax-ns#" xmlns:svg="http://www.w3.org/2000/svg" xmlns="http://www.w3.org/2000/svg" xmlns:sodipodi="http://sodipodi.sourceforge.net/DTD/sodipodi-0.dtd" xmlns:inkscape="http://www.inkscape.org/namespaces/inkscape" sodipodi:docname="media-flash.svg" inkscape:export-filename="/home/sam/source-symbolic.png" inkscape:export-xdpi="270" inkscape:export-ydpi="270" height="16" id="svg7384" style="enable-background:new" version="1.1" inkscape:version="0.91 r13725" width="16">
    <sodipodi:namedview inkscape:bbox-nodes="true" inkscape:bbox-paths="false" bordercolor="#666666" borderlayer="false" borderopacity="1" inkscape:current-layer="layer10" inkscape:cx="-11.169877" inkscape:cy="6.0000305" gridtolerance="10" inkscape:guide-bbox="true" guidetolerance="10" id="namedview88" inkscape:object-nodes="true" inkscape:object-paths="true" objecttolerance="10" pagecolor="#f7f7f7" inkscape:pageopacity="1" inkscape:pageshadow="2" showborder="true" showgrid="false" showguides="true" inkscape:showpageshadow="false" inkscape:snap-bbox="true" inkscape:snap-bbox-edge-midpoints="false" inkscape:snap-bbox-midpoints="true" inkscape:snap-center="false" inkscape:snap-global="true" inkscape:snap-grids="true" inkscape:snap-intersection-paths="true" inkscape:snap-midpoints="true" inkscape:snap-nodes="true" inkscape:snap-object-midpoints="true" inkscape:snap-others="true" inkscape:snap-page="false" inkscape:snap-smooth-nodes="true" inkscape:snap-to-guides="true" inkscape:window-height="847" inkscape:window-maximized="1" inkscape:window-width="1600" inkscape:window-x="0" inkscape:window-y="0" inkscape:zoom="11.42">
        <inkscape:grid color="#000000" dotted="false" empcolor="#0800ff" empopacity="0.4627451" empspacing="4" enabled="true" id="grid4866" opacity="0.16470588" originx="-64.000227" originy="-376.00333" snapvisiblegridlinesonly="true" spacingx="0.25px" spacingy="0.25px" type="xygrid" visible="true"/>
    </sodipodi:namedview>
    <metadata id="metadata90">
        <rdf:RDF>
            <cc:Work rdf:about="">
                <dc:format>
                    image/svg+xml
                </dc:format>
                <dc:type rdf:resource="http://purl.org/dc/dcmitype/StillImage"/>
                <dc:title>
                    Paper Symbolic Icon Theme
                </dc:title>
            </cc:Work>
        </rdf:RDF>
    </metadata>
    <title id="title8473">
        Paper Symbolic Icon Theme
    </title>
    <defs id="defs7386">
        <linearGradient id="linearGradient5606" osb:paint="solid">
            <stop id="stop5608" offset="0" style="stop-color:#000000;stop-opacity:1;"/>
        </linearGradient>
        <filter inkscape:collect="always" id="filter7554" style="color-interpolation-filters:sRGB">
            <feBlend inkscape:collect="always" id="feBlend7556" in2="BackgroundImage" mode="darken"/>
        </filter>
    </defs>
    <g inkscape:groupmode="layer" id="layer10" inkscape:label="devices" style="display:inline;filter:url(#filter7554)" transform="translate(-305.00043,159.00333)">
        <g id="g4421">
            <path style="opacity:0.5;fill:#000000;fill-opacity:1;stroke:none;stroke-width:3;stroke-linecap:round;stroke-linejoin:round;stroke-miterlimit:4;stroke-dasharray:none;stroke-opacity:1" d="M 4.2265625 0 C 4.1014531 0 4 0.10145309 4 0.2265625 L 4 2 L 3.2851562 2 C 3.1269893 2 3 2.1269893 3 2.2851562 L 3 4 L 1.1972656 4 C 1.0877949 4 1 4.1014531 1 4.2265625 L 1 5.7734375 C 1 5.8985469 1.0877949 6 1.1972656 6 L 3 6 L 3 7 L 1.1972656 7 C 1.0877949 7 1 7.1014531 1 7.2265625 L 1 8.7734375 C 1 8.8985469 1.0877949 9 1.1972656 9 L 3 9 L 3 10 L 1.1972656 10 C 1.0877949 10 1 10.101453 1 10.226562 L 1 11.773438 C 1 11.898547 1.0877949 12 1.1972656 12 L 3 12 L 3 13.714844 C 3 13.873011 3.1269893 14 3.2851562 14 L 4 14 L 4 15.773438 C 4 15.898547 4.1014531 16 4.2265625 16 L 5.7734375 16 C 5.8985469 16 6 15.898547 6 15.773438 L 6 14 L 7 14 L 7 15.773438 C 7 15.898547 7.1014531 16 7.2265625 16 L 8.7734375 16 C 8.8985469 16 9 15.898547 9 15.773438 L 9 14 L 10 14 L 10 15.773438 C 10 15.898547 10.101453 16 10.226562 16 L 11.773438 16 C 11.898547 16 12 15.898547 12 15.773438 L 12 14 L 12.714844 14 C 12.873011 14 13 13.873011 13 13.714844 L 13 12 L 14.802734 12 C 14.912205 12 15 11.898547 15 11.773438 L 15 10.226562 C 15 10.101453 14.912205 10 14.802734 10 L 13 10 L 13 9 L 14.802734 9 C 14.912205 9 15 8.8985469 15 8.7734375 L 15 7.2265625 C 15 7.1014531 14.912205 7 14.802734 7 L 13 7 L 13 6 L 14.802734 6 C 14.912205 6 15 5.8985469 15 5.7734375 L 15 4.2265625 C 15 4.1014531 14.912205 4 14.802734 4 L 13 4 L 13 2.2851562 C 13 2.1269893 12.873011 2 12.714844 2 L 12 2 L 12 0.2265625 C 12 0.10145309 11.898547 0 11.773438 0 L 10.226562 0 C 10.101453 0 10 0.10145309 10 0.2265625 L 10 2 L 9 2 L 9 0.2265625 C 9 0.10145309 8.8985469 0 8.7734375 0 L 7.2265625 0 C 7.1014531 0 7 0.10145309 7 0.2265625 L 7 2 L 6 2 L 6 0.2265625 C 6 0.10145309 5.8985469 0 5.7734375 0 L 4.2265625 0 z " transform="translate(305.00043,-159.00333)" id="rect4415"/>
        </g>
    </g>
</svg>

<?xml version="1.0" encoding="UTF-8" standalone="no"?>
<!--Created with Inkscape (http://www.inkscape.org/)-->
<svg id="svg7384" xmlns:rdf="http://www.w3.org/1999/02/22-rdf-syntax-ns#" style="enable-background:new" xmlns="http://www.w3.org/2000/svg" height="16" width="16" version="1.1" xmlns:cc="http://creativecommons.org/ns#" xmlns:dc="http://purl.org/dc/elements/1.1/">
 <metadata id="metadata90">
  <rdf:RDF>
   <cc:Work rdf:about="">
    <dc:format>image/svg+xml</dc:format>
    <dc:type rdf:resource="http://purl.org/dc/dcmitype/StillImage"/>
   </cc:Work>
  </rdf:RDF>
 </metadata>
 <defs id="defs7386">
  <filter id="filter7554" style="color-interpolation-filters:sRGB">
   <feBlend id="feBlend7556" in2="BackgroundImage" mode="darken"/>
  </filter>
 </defs>
 <g id="layer10" filter="url(#filter7554)" transform="translate(-305 159)">
  <g id="g4421">
   <path id="rect4415" opacity=".5" transform="translate(305 -159)" d="m4.2266 0c-0.1251 0-0.2266 0.10145-0.2266 0.22656v1.7734h-0.7148c-0.1582 0-0.2852 0.127-0.2852 0.2852v1.7148h-1.8027c-0.1095 0-0.1973 0.1015-0.1973 0.2266v1.5468c0 0.1251 0.0878 0.2266 0.1973 0.2266h1.8027v1h-1.8027c-0.1095 0-0.1973 0.1015-0.1973 0.2266v1.5468c0 0.1251 0.0878 0.2266 0.1973 0.2266h1.8027v1h-1.8027c-0.1095 0-0.1973 0.101-0.1973 0.227v1.546c0 0.126 0.0878 0.227 0.1973 0.227h1.8027v1.715c0 0.158 0.127 0.285 0.2852 0.285h0.7148v1.773c0 0.126 0.1015 0.227 0.2266 0.227h1.5468c0.1251 0 0.2266-0.101 0.2266-0.227v-1.773h1v1.773c0 0.126 0.1015 0.227 0.2266 0.227h1.5468c0.1251 0 0.2266-0.101 0.2266-0.227v-1.773h1v1.773c0 0.126 0.101 0.227 0.227 0.227h1.546c0.126 0 0.227-0.101 0.227-0.227v-1.773h0.715c0.158 0 0.285-0.127 0.285-0.285v-1.715h1.803c0.109 0 0.197-0.101 0.197-0.227v-1.546c0-0.126-0.088-0.227-0.197-0.227h-1.803v-1h1.803c0.109 0 0.197-0.1015 0.197-0.2266v-1.5468c0-0.1251-0.088-0.2266-0.197-0.2266h-1.803v-1h1.803c0.109 0 0.197-0.1015 0.197-0.2266v-1.5468c0-0.1251-0.088-0.2266-0.197-0.2266h-1.803v-1.7148c0-0.1582-0.127-0.2852-0.285-0.2852h-0.715v-1.7734c0-0.12515-0.101-0.2266-0.227-0.2266h-1.546c-0.126 0-0.227 0.10145-0.227 0.22656v1.7734h-1v-1.7734c0-0.12515-0.1015-0.2266-0.2266-0.2266h-1.5468c-0.1251 0-0.2266 0.10145-0.2266 0.22656v1.7734h-1v-1.7734c0-0.12515-0.1015-0.2266-0.2266-0.2266h-1.5468z"/>
  </g>
 </g>
</svg>
